docs/svgs/bloom.svg

<svg viewBox="0 0 24 24" height="24px" width="24px" fill="#44739e" xmlns="http://www.w3.org/2000/svg"><title>hue:bloom</title><desc>Source: https://github.com/arallsopp/hass-hue-icons</desc><path d="M 18.6875 17.652344 C 17.195312 16.984375 13.996094 15.117188 11.03125 12.183594 C 7.96875 9.160156 6.023438 5.980469 5.421875 4.546875 C 5.304688 4.269531 5.554688 3.984375 5.851562 4.058594 C 6.265625 4.15625 6.816406 4.355469 7.511719 4.726562 C 11.378906 6.796875 16.425781 11.773438 18.53125 15.59375 C 18.898438 16.261719 19.09375 16.820312 19.1875 17.253906 C 19.25 17.535156 18.953125 17.769531 18.6875 17.652344 M 19.488281 15.074219 C 17.273438 11.054688 12.105469 5.960938 8.03125 3.777344 C 6.792969 3.117188 5.816406 2.875 5.109375 2.875 C 5.109375 2.875 4.660156 2.867188 4.316406 3.003906 C 3.414062 3.390625 2.917969 4.449219 2.917969 6.765625 C 2.917969 9.597656 4.109375 12.355469 5.964844 14.621094 L 3.035156 18.984375 C 2.707031 19.464844 3.054688 20.113281 3.636719 20.109375 L 8.4375 20.09375 C 8.921875 20.09375 9.375 19.851562 9.644531 19.453125 L 10.375 18.371094 C 12.300781 19.476562 14.410156 20.125 16.464844 20.125 C 18.210938 20.125 19.332031 19.707031 20.054688 18.984375 C 20.480469 18.589844 20.613281 17.117188 19.488281 15.074219 "/></svg>

<svg viewBox="0 0 24 24" height="24px" width="24px" fill="#44739e" xmlns="http://www.w3.org/2000/svg"><title>hue:bloom</title><desc>Source: https://github.com/arallsopp/hass-hue-icons</desc><path d="M18.69,17.65c-1.49-0.67-4.69-2.54-7.66-5.47c-3.06-3.02-5.01-6.2-5.61-7.64C5.3,4.27,5.55,3.98,5.85,4.06 c0.41,0.1,0.96,0.3,1.66,0.67c3.87,2.07,8.91,7.05,11.02,10.87c0.37,0.67,0.56,1.23,0.66,1.66C19.25,17.54,18.95,17.77,18.69,17.65 M19.49,15.07c-2.21-4.02-7.38-9.11-11.46-11.3c-1.24-0.66-2.21-0.9-2.92-0.9c0,0-0.45-0.01-0.79,0.13c-0.9,0.39-1.4,1.45-1.4,3.76 c0,2.83,1.19,5.59,3.05,7.86l-2.93,4.36c-0.33,0.48,0.02,1.13,0.6,1.12l4.8-0.02c0.48,0,0.94-0.24,1.21-0.64l0.73-1.08 c1.93,1.11,4.04,1.75,6.09,1.75c1.75,0,2.87-0.42,3.59-1.14C20.48,18.59,20.61,17.12,19.49,15.07"/></svg>
